{
  "type": "map",
  "version": "1.10",
  "tiledversion": "1.11.2",
  "orientation": "orthogonal",
  "renderorder": "right-down",
  "width": 72,
  "height": 48,
  "tilewidth": 32,
  "tileheight": 32,
  "infinite": false,
  "nextlayerid": 10,
  "nextobjectid": 600,
  "tilesets": [
    {
      "firstgid": 1,
      "name": "Bistro floor",
      "tilewidth": 32,
      "tileheight": 32,
      "tilecount": 2,
      "columns": 0,
      "tiles": [
        {
          "id": 0,
          "type": "public-floor"
        },
        {
          "id": 1,
          "type": "mouse-only"
        }
      ]
    }
  ],
  "layers": [
    {
      "id": 1,
      "type": "tilelayer",
      "name": "Floor",
      "width": 72,
      "height": 48,
      "data": [
        0,
        0,
        0,
        0,
        0,
        0,
        0,
        0,
        0,
        0,
        0,
        0,
        0,
        0,
        0,
        0,
        0,
        0,
        0,
        0,
        0,
        0,
        0,
        0,
        0,
        0,
        0,
        0,
        0,
        0,
        0,
        0,
        0,
        0,
        0,
        0,
        0,
        0,
        0,
        0,
        0,
        0,
        0,
        0,
        0,
        0,
        0,
        0,
        0,
        0,
        0,
        0,
        0,
        0,
        0,
        0,
        0,
        0,
        0,
        0,
        0,
        0,
        0,
        0,
        0,
        0,
        0,
        0,
        0,
        0,
        0,
        0,
        0,
        1,
        1,
        1,
        1,
        1,
        1,
        1,
        1,
        1,
        1,
        1,
        1,
        1,
        1,
        1,
        1,
        1,
        1,
        1,
        1,
        1,
        1,
        1,
        1,
        1,
        1,
        1,
        1,
        1,
        1,
        1,
        1,
        1,
        1,
        1,
        1,
        1,
        1,
        1,
        1,
        1,
        1,
        1,
        1,
        1,
        1,
        1,
        1,
        1,
        1,
        1,
        1,
        1,
        1,
        1,
        1,
        1,
        1,
        1,
        1,
        1,
        1,
        1,
        1,
        1,
        1,
        1,
        1,
        1,
        1,
        0,
        0,
        1,
        1,
        1,
        1,
        1,
        1,
        1,
        1,
        1,
        1,
        1,
        1,
        1,
        1,
        1,
        1,
        1,
        1,
        1,
        1,
        1,
        1,
        1,
        1,
        1,
        1,
        1,
        1,
        1,
        1,
        1,
        1,
        1,
        1,
        1,
        1,
        1,
        1,
        1,
        1,
        1,
        1,
        1,
        1,
        1,
        1,
        1,
        1,
        1,
        1,
        1,
        1,
        1,
        1,
        1,
        1,
        1,
        1,
        1,
        1,
        1,
        1,
        1,
        1,
        1,
        1,
        1,
        1,
        1,
        1,
        0,
        0,
        1,
        1,
        1,
        1,
        1,
        1,
        1,
        1,
        1,
        1,
        1,
        1,
        1,
        1,
        1,
        1,
        1,
        1,
        1,
        1,
        1,
        1,
        1,
        1,
        1,
        1,
        1,
        1,
        1,
        1,
        1,
        1,
        1,
        1,
        1,
        1,
        1,
        1,
        1,
        1,
        1,
        1,
        1,
        1,
        1,
        1,
        1,
        1,
        1,
        1,
        1,
        1,
        1,
        1,
        1,
        1,
        1,
        1,
        1,
        1,
        1,
        1,
        1,
        1,
        1,
        1,
        1,
        1,
        1,
        1,
        0,
        0,
        1,
        1,
        1,
        1,
        1,
        1,
        1,
        1,
        1,
        1,
        1,
        1,
        1,
        1,
        1,
        1,
        1,
        1,
        1,
        1,
        1,
        1,
        1,
        1,
        1,
        1,
        1,
        1,
        1,
        1,
        1,
        1,
        1,
        1,
        1,
        1,
        1,
        1,
        1,
        1,
        1,
        1,
        1,
        1,
        1,
        1,
        1,
        1,
        1,
        1,
        1,
        1,
        1,
        1,
        1,
        1,
        1,
        1,
        1,
        1,
        1,
        1,
        1,
        1,
        1,
        1,
        1,
        1,
        1,
        1,
        0,
        0,
        1,
        1,
        1,
        1,
        1,
        1,
        1,
        1,
        1,
        1,
        1,
        1,
        1,
        1,
        1,
        1,
        1,
        1,
        1,
        1,
        1,
        1,
        1,
        1,
        1,
        1,
        1,
        1,
        1,
        1,
        1,
        1,
        1,
        1,
        1,
        1,
        1,
        1,
        1,
        1,
        1,
        1,
        1,
        1,
        1,
        1,
        1,
        1,
        1,
        1,
        1,
        1,
        1,
        1,
        1,
        1,
        1,
        1,
        1,
        1,
        1,
        1,
        1,
        1,
        1,
        1,
        1,
        1,
        1,
        1,
        0,
        0,
        1,
        1,
        1,
        1,
        1,
        1,
        1,
        1,
        1,
        1,
        1,
        1,
        1,
        1,
        1,
        1,
        1,
        1,
        1,
        1,
        1,
        1,
        1,
        1,
        1,
        1,
        1,
        1,
        1,
        1,
        1,
        1,
        1,
        1,
        1,
        1,
        1,
        1,
        1,
        1,
        1,
        1,
        1,
        1,
        1,
        1,
        1,
        1,
        1,
        1,
        1,
        1,
        1,
        1,
        1,
        1,
        1,
        1,
        1,
        1,
        1,
        1,
        1,
        1,
        1,
        1,
        1,
        1,
        1,
        1,
        0,
        0,
        1,
        1,
        1,
        1,
        1,
        1,
        1,
        1,
        1,
        1,
        1,
        1,
        1,
        1,
        1,
        1,
        1,
        1,
        1,
        1,
        1,
        1,
        1,
        1,
        1,
        1,
        1,
        1,
        1,
        1,
        1,
        1,
        1,
        1,
        1,
        1,
        1,
        1,
        1,
        1,
        1,
        1,
        1,
        1,
        1,
        1,
        1,
        1,
        1,
        1,
        1,
        1,
        1,
        1,
        1,
        1,
        1,
        1,
        1,
        1,
        1,
        1,
        1,
        1,
        1,
        1,
        1,
        1,
        1,
        1,
        0,
        0,
        1,
        1,
        1,
        1,
        1,
        1,
        1,
        1,
        1,
        1,
        1,
        1,
        1,
        1,
        1,
        1,
        1,
        1,
        1,
        1,
        1,
        1,
        1,
        1,
        1,
        1,
        1,
        1,
        1,
        1,
        1,
        1,
        1,
        1,
        1,
        1,
        1,
        1,
        1,
        1,
        1,
        1,
        1,
        1,
        1,
        1,
        1,
        1,
        1,
        1,
        1,
        1,
        1,
        1,
        1,
        1,
        1,
        1,
        1,
        1,
        1,
        1,
        1,
        1,
        1,
        1,
        1,
        1,
        1,
        1,
        0,
        0,
        1,
        1,
        1,
        1,
        1,
        1,
        1,
        1,
        1,
        1,
        1,
        1,
        1,
        1,
        1,
        1,
        1,
        1,
        1,
        1,
        1,
        1,
        1,
        1,
        1,
        1,
        1,
        1,
        1,
        1,
        1,
        1,
        1,
        1,
        1,
        1,
        1,
        1,
        1,
        1,
        1,
        1,
        1,
        1,
        1,
        1,
        1,
        1,
        1,
        1,
        1,
        1,
        1,
        1,
        1,
        1,
        1,
        1,
        1,
        1,
        1,
        1,
        1,
        1,
        1,
        1,
        1,
        1,
        1,
        1,
        0,
        0,
        1,
        1,
        1,
        1,
        1,
        1,
        1,
        1,
        1,
        1,
        1,
        1,
        1,
        1,
        1,
        1,
        1,
        1,
        1,
        1,
        1,
        1,
        1,
        1,
        1,
        1,
        1,
        1,
        1,
        1,
        1,
        1,
        1,
        1,
        1,
        1,
        1,
        1,
        1,
        1,
        1,
        1,
        1,
        1,
        1,
        1,
        1,
        1,
        1,
        1,
        1,
        1,
        1,
        1,
        1,
        1,
        1,
        1,
        1,
        1,
        1,
        1,
        1,
        1,
        1,
        1,
        1,
        1,
        1,
        1,
        0,
        0,
        1,
        1,
        1,
        1,
        1,
        1,
        1,
        1,
        1,
        1,
        1,
        1,
        1,
        1,
        1,
        1,
        1,
        1,
        1,
        1,
        1,
        1,
        1,
        1,
        1,
        1,
        1,
        1,
        1,
        1,
        1,
        1,
        1,
        1,
        1,
        1,
        1,
        1,
        1,
        1,
        1,
        1,
        1,
        1,
        1,
        1,
        1,
        1,
        1,
        1,
        1,
        1,
        1,
        1,
        1,
        1,
        1,
        1,
        1,
        1,
        1,
        1,
        1,
        1,
        1,
        1,
        1,
        1,
        1,
        1,
        0,
        0,
        1,
        1,
        1,
        1,
        1,
        1,
        1,
        1,
        1,
        1,
        1,
        1,
        1,
        1,
        1,
        1,
        1,
        1,
        1,
        1,
        1,
        1,
        1,
        1,
        1,
        1,
        1,
        1,
        1,
        1,
        1,
        1,
        1,
        1,
        1,
        1,
        1,
        1,
        1,
        1,
        1,
        1,
        1,
        1,
        1,
        1,
        1,
        1,
        1,
        1,
        1,
        1,
        1,
        1,
        1,
        1,
        1,
        1,
        1,
        1,
        1,
        1,
        1,
        1,
        1,
        1,
        1,
        1,
        1,
        1,
        0,
        0,
        1,
        1,
        1,
        1,
        1,
        1,
        1,
        1,
        1,
        1,
        1,
        1,
        1,
        1,
        1,
        1,
        1,
        1,
        1,
        1,
        1,
        1,
        1,
        1,
        1,
        1,
        1,
        1,
        1,
        1,
        1,
        1,
        1,
        1,
        1,
        1,
        1,
        1,
        1,
        1,
        1,
        1,
        1,
        1,
        1,
        1,
        1,
        1,
        1,
        1,
        1,
        1,
        1,
        1,
        1,
        1,
        1,
        1,
        1,
        1,
        1,
        1,
        1,
        1,
        1,
        1,
        1,
        1,
        1,
        1,
        0,
        0,
        1,
        1,
        1,
        1,
        1,
        1,
        1,
        1,
        1,
        1,
        1,
        1,
        1,
        1,
        1,
        1,
        1,
        1,
        1,
        1,
        1,
        1,
        1,
        1,
        1,
        1,
        1,
        1,
        1,
        1,
        1,
        1,
        1,
        1,
        1,
        1,
        1,
        1,
        1,
        1,
        1,
        1,
        1,
        1,
        1,
        1,
        1,
        1,
        1,
        1,
        1,
        1,
        1,
        1,
        1,
        1,
        1,
        1,
        1,
        1,
        1,
        1,
        1,
        1,
        1,
        1,
        1,
        1,
        1,
        1,
        0,
        0,
        1,
        1,
        1,
        1,
        1,
        1,
        1,
        1,
        1,
        1,
        1,
        1,
        1,
        1,
        1,
        1,
        1,
        1,
        1,
        1,
        1,
        1,
        1,
        1,
        1,
        1,
        1,
        1,
        1,
        1,
        1,
        1,
        1,
        1,
        1,
        1,
        1,
        1,
        1,
        1,
        1,
        1,
        1,
        1,
        1,
        1,
        1,
        1,
        1,
        1,
        1,
        1,
        1,
        1,
        1,
        1,
        1,
        1,
        1,
        1,
        1,
        1,
        1,
        1,
        1,
        1,
        1,
        1,
        1,
        1,
        0,
        0,
        1,
        1,
        1,
        1,
        1,
        1,
        1,
        1,
        1,
        1,
        1,
        1,
        1,
        1,
        1,
        1,
        1,
        1,
        1,
        1,
        1,
        1,
        1,
        1,
        1,
        1,
        1,
        1,
        1,
        1,
        1,
        1,
        1,
        1,
        1,
        1,
        1,
        1,
        1,
        1,
        1,
        1,
        1,
        1,
        1,
        1,
        1,
        1,
        1,
        1,
        1,
        1,
        1,
        1,
        1,
        1,
        1,
        1,
        1,
        1,
        1,
        1,
        1,
        1,
        1,
        1,
        1,
        1,
        1,
        1,
        0,
        0,
        1,
        1,
        1,
        1,
        1,
        1,
        1,
        1,
        1,
        1,
        1,
        1,
        1,
        1,
        1,
        1,
        1,
        1,
        1,
        1,
        1,
        1,
        1,
        1,
        1,
        1,
        1,
        1,
        1,
        1,
        1,
        1,
        1,
        1,
        1,
        1,
        1,
        1,
        1,
        1,
        1,
        1,
        1,
        1,
        1,
        1,
        1,
        1,
        1,
        1,
        1,
        1,
        1,
        1,
        1,
        1,
        1,
        1,
        1,
        1,
        1,
        1,
        1,
        1,
        1,
        1,
        1,
        1,
        1,
        1,
        0,
        0,
        1,
        1,
        1,
        1,
        1,
        1,
        1,
        1,
        1,
        1,
        1,
        1,
        1,
        1,
        1,
        1,
        1,
        1,
        1,
        1,
        1,
        1,
        1,
        1,
        1,
        1,
        1,
        1,
        1,
        1,
        1,
        1,
        1,
        1,
        1,
        1,
        1,
        1,
        1,
        1,
        1,
        1,
        1,
        1,
        1,
        1,
        1,
        1,
        1,
        1,
        1,
        1,
        1,
        1,
        1,
        1,
        1,
        1,
        1,
        1,
        1,
        1,
        1,
        1,
        1,
        1,
        1,
        1,
        1,
        1,
        0,
        0,
        1,
        1,
        1,
        1,
        1,
        1,
        1,
        1,
        1,
        1,
        1,
        1,
        1,
        1,
        1,
        1,
        1,
        1,
        1,
        1,
        1,
        1,
        1,
        1,
        1,
        1,
        1,
        1,
        1,
        1,
        1,
        1,
        1,
        1,
        1,
        1,
        1,
        1,
        1,
        1,
        1,
        1,
        1,
        1,
        1,
        1,
        1,
        1,
        1,
        1,
        1,
        1,
        1,
        1,
        1,
        1,
        1,
        1,
        1,
        1,
        1,
        1,
        1,
        1,
        1,
        1,
        1,
        1,
        1,
        1,
        0,
        0,
        1,
        1,
        1,
        1,
        1,
        1,
        1,
        1,
        1,
        1,
        1,
        1,
        1,
        1,
        1,
        1,
        1,
        1,
        1,
        1,
        1,
        1,
        1,
        1,
        1,
        1,
        1,
        1,
        1,
        1,
        1,
        1,
        1,
        1,
        1,
        1,
        1,
        1,
        1,
        1,
        1,
        1,
        1,
        1,
        1,
        1,
        1,
        1,
        1,
        1,
        1,
        1,
        1,
        1,
        1,
        1,
        1,
        1,
        1,
        1,
        1,
        1,
        1,
        1,
        1,
        1,
        1,
        1,
        1,
        1,
        0,
        0,
        1,
        1,
        1,
        1,
        1,
        1,
        1,
        1,
        1,
        1,
        1,
        1,
        1,
        1,
        1,
        1,
        1,
        1,
        1,
        1,
        1,
        1,
        1,
        1,
        1,
        1,
        1,
        1,
        1,
        1,
        1,
        1,
        1,
        1,
        1,
        1,
        1,
        1,
        1,
        1,
        1,
        1,
        1,
        1,
        1,
        1,
        1,
        1,
        1,
        1,
        1,
        1,
        1,
        1,
        1,
        1,
        1,
        1,
        1,
        1,
        1,
        1,
        1,
        1,
        1,
        1,
        1,
        1,
        1,
        1,
        0,
        0,
        1,
        1,
        1,
        1,
        1,
        1,
        1,
        1,
        1,
        1,
        1,
        1,
        1,
        1,
        1,
        1,
        1,
        1,
        1,
        1,
        1,
        1,
        1,
        1,
        1,
        1,
        1,
        1,
        1,
        1,
        1,
        1,
        1,
        1,
        1,
        1,
        1,
        1,
        1,
        1,
        1,
        1,
        1,
        1,
        1,
        1,
        1,
        1,
        1,
        1,
        1,
        1,
        1,
        1,
        1,
        1,
        1,
        1,
        1,
        1,
        1,
        1,
        1,
        1,
        1,
        1,
        1,
        1,
        1,
        1,
        0,
        0,
        1,
        1,
        1,
        1,
        1,
        1,
        1,
        1,
        1,
        1,
        1,
        1,
        1,
        1,
        1,
        1,
        1,
        1,
        1,
        1,
        1,
        1,
        1,
        1,
        1,
        1,
        1,
        1,
        1,
        1,
        1,
        1,
        1,
        1,
        1,
        1,
        1,
        1,
        1,
        1,
        1,
        1,
        1,
        1,
        1,
        1,
        1,
        1,
        1,
        1,
        1,
        1,
        1,
        1,
        1,
        1,
        1,
        1,
        1,
        1,
        1,
        1,
        1,
        1,
        1,
        1,
        1,
        1,
        1,
        1,
        0,
        0,
        1,
        1,
        1,
        1,
        1,
        1,
        1,
        1,
        1,
        1,
        1,
        1,
        1,
        1,
        1,
        1,
        1,
        1,
        1,
        1,
        1,
        1,
        1,
        1,
        1,
        1,
        1,
        1,
        1,
        1,
        1,
        1,
        1,
        1,
        1,
        1,
        1,
        1,
        1,
        1,
        1,
        1,
        1,
        1,
        1,
        1,
        1,
        1,
        1,
        1,
        1,
        1,
        1,
        1,
        1,
        1,
        1,
        1,
        1,
        1,
        1,
        1,
        1,
        1,
        1,
        1,
        1,
        1,
        1,
        1,
        0,
        0,
        1,
        1,
        1,
        1,
        1,
        1,
        1,
        1,
        1,
        1,
        1,
        1,
        1,
        1,
        1,
        1,
        1,
        1,
        1,
        1,
        1,
        1,
        1,
        1,
        1,
        1,
        1,
        1,
        1,
        1,
        1,
        1,
        1,
        1,
        1,
        1,
        1,
        1,
        1,
        1,
        1,
        1,
        1,
        1,
        1,
        1,
        1,
        1,
        1,
        1,
        1,
        1,
        1,
        1,
        1,
        1,
        1,
        1,
        1,
        1,
        1,
        1,
        1,
        1,
        1,
        1,
        1,
        1,
        1,
        1,
        0,
        0,
        1,
        1,
        1,
        1,
        1,
        1,
        1,
        1,
        1,
        1,
        1,
        1,
        1,
        1,
        1,
        1,
        1,
        1,
        1,
        1,
        1,
        1,
        1,
        1,
        1,
        1,
        1,
        1,
        1,
        1,
        1,
        1,
        1,
        1,
        1,
        1,
        1,
        1,
        1,
        1,
        1,
        1,
        1,
        1,
        1,
        1,
        1,
        1,
        1,
        1,
        1,
        1,
        1,
        1,
        1,
        1,
        1,
        1,
        1,
        1,
        1,
        1,
        1,
        1,
        1,
        1,
        1,
        1,
        1,
        1,
        0,
        0,
        1,
        1,
        1,
        1,
        1,
        1,
        1,
        1,
        1,
        1,
        1,
        1,
        1,
        1,
        1,
        1,
        1,
        1,
        1,
        1,
        1,
        1,
        1,
        1,
        1,
        1,
        1,
        1,
        1,
        1,
        1,
        1,
        1,
        1,
        1,
        1,
        1,
        1,
        1,
        1,
        1,
        1,
        1,
        1,
        1,
        1,
        1,
        1,
        1,
        1,
        1,
        1,
        1,
        1,
        1,
        1,
        1,
        1,
        1,
        1,
        1,
        1,
        1,
        1,
        1,
        1,
        1,
        1,
        1,
        1,
        0,
        0,
        1,
        1,
        1,
        1,
        1,
        1,
        1,
        1,
        1,
        1,
        1,
        1,
        1,
        1,
        1,
        1,
        1,
        1,
        1,
        1,
        1,
        1,
        1,
        1,
        1,
        1,
        1,
        1,
        1,
        1,
        1,
        1,
        1,
        1,
        1,
        1,
        1,
        1,
        1,
        1,
        1,
        1,
        1,
        1,
        1,
        1,
        1,
        1,
        1,
        1,
        1,
        1,
        1,
        1,
        1,
        1,
        1,
        1,
        1,
        1,
        1,
        1,
        1,
        1,
        1,
        1,
        1,
        1,
        1,
        1,
        0,
        0,
        1,
        1,
        1,
        1,
        1,
        1,
        1,
        1,
        1,
        1,
        1,
        1,
        1,
        1,
        1,
        1,
        1,
        1,
        1,
        1,
        1,
        1,
        1,
        1,
        1,
        1,
        1,
        1,
        1,
        1,
        1,
        1,
        1,
        1,
        1,
        1,
        1,
        1,
        1,
        1,
        1,
        1,
        1,
        1,
        1,
        1,
        1,
        1,
        1,
        1,
        1,
        1,
        1,
        1,
        1,
        1,
        1,
        1,
        1,
        1,
        1,
        1,
        1,
        1,
        1,
        1,
        1,
        1,
        1,
        1,
        0,
        0,
        1,
        1,
        1,
        1,
        1,
        1,
        1,
        1,
        1,
        1,
        1,
        1,
        1,
        1,
        1,
        1,
        1,
        1,
        1,
        1,
        1,
        1,
        1,
        1,
        1,
        1,
        1,
        1,
        1,
        1,
        1,
        1,
        1,
        1,
        1,
        1,
        1,
        1,
        1,
        1,
        1,
        1,
        1,
        1,
        1,
        1,
        1,
        1,
        1,
        1,
        1,
        1,
        1,
        1,
        1,
        1,
        1,
        1,
        1,
        1,
        1,
        1,
        1,
        1,
        1,
        1,
        1,
        1,
        1,
        1,
        0,
        0,
        1,
        1,
        1,
        1,
        1,
        1,
        1,
        1,
        1,
        1,
        1,
        1,
        1,
        1,
        1,
        1,
        1,
        1,
        1,
        1,
        1,
        1,
        1,
        1,
        1,
        1,
        1,
        1,
        1,
        1,
        1,
        1,
        1,
        1,
        1,
        1,
        1,
        1,
        1,
        1,
        1,
        1,
        1,
        1,
        1,
        1,
        1,
        1,
        1,
        1,
        1,
        1,
        1,
        1,
        1,
        1,
        1,
        1,
        1,
        1,
        1,
        1,
        1,
        1,
        1,
        1,
        1,
        1,
        1,
        1,
        0,
        0,
        1,
        1,
        1,
        1,
        1,
        1,
        1,
        1,
        1,
        1,
        1,
        1,
        1,
        1,
        1,
        1,
        1,
        1,
        1,
        1,
        1,
        1,
        1,
        1,
        1,
        1,
        1,
        1,
        1,
        1,
        1,
        1,
        1,
        1,
        1,
        1,
        1,
        1,
        1,
        1,
        1,
        1,
        1,
        1,
        1,
        1,
        1,
        1,
        1,
        1,
        1,
        1,
        1,
        1,
        1,
        1,
        1,
        1,
        1,
        1,
        1,
        1,
        1,
        1,
        1,
        1,
        1,
        1,
        1,
        1,
        0,
        0,
        1,
        1,
        1,
        1,
        1,
        1,
        1,
        1,
        1,
        1,
        1,
        1,
        1,
        1,
        1,
        1,
        1,
        1,
        1,
        1,
        1,
        1,
        1,
        1,
        1,
        1,
        1,
        1,
        1,
        1,
        1,
        1,
        1,
        1,
        1,
        1,
        1,
        1,
        1,
        1,
        1,
        1,
        1,
        1,
        1,
        1,
        1,
        1,
        1,
        1,
        1,
        1,
        1,
        1,
        1,
        1,
        1,
        1,
        1,
        1,
        1,
        1,
        1,
        1,
        1,
        1,
        1,
        1,
        1,
        1,
        0,
        0,
        1,
        1,
        1,
        1,
        1,
        1,
        1,
        1,
        1,
        1,
        1,
        1,
        1,
        1,
        1,
        1,
        1,
        1,
        1,
        1,
        1,
        1,
        1,
        1,
        1,
        1,
        1,
        1,
        1,
        1,
        1,
        1,
        1,
        1,
        1,
        1,
        1,
        1,
        1,
        1,
        1,
        1,
        1,
        1,
        1,
        1,
        1,
        1,
        1,
        1,
        1,
        1,
        1,
        1,
        1,
        1,
        1,
        1,
        1,
        1,
        1,
        1,
        1,
        1,
        1,
        1,
        1,
        1,
        1,
        1,
        0,
        0,
        1,
        1,
        1,
        1,
        1,
        1,
        1,
        1,
        1,
        1,
        1,
        1,
        1,
        1,
        1,
        1,
        1,
        1,
        1,
        1,
        1,
        1,
        1,
        1,
        1,
        1,
        1,
        1,
        1,
        1,
        1,
        1,
        1,
        1,
        1,
        1,
        1,
        1,
        1,
        1,
        1,
        1,
        1,
        1,
        1,
        1,
        1,
        1,
        1,
        1,
        1,
        1,
        1,
        1,
        1,
        1,
        1,
        1,
        1,
        1,
        1,
        1,
        1,
        1,
        1,
        1,
        1,
        1,
        1,
        1,
        0,
        0,
        1,
        1,
        1,
        1,
        1,
        1,
        1,
        1,
        1,
        1,
        1,
        1,
        1,
        1,
        1,
        1,
        1,
        1,
        1,
        1,
        1,
        1,
        1,
        1,
        1,
        1,
        1,
        1,
        1,
        1,
        1,
        1,
        1,
        1,
        1,
        1,
        1,
        1,
        1,
        1,
        1,
        1,
        1,
        1,
        1,
        1,
        1,
        1,
        1,
        1,
        1,
        1,
        1,
        1,
        1,
        1,
        1,
        1,
        1,
        1,
        1,
        1,
        1,
        1,
        1,
        1,
        1,
        1,
        1,
        1,
        0,
        0,
        1,
        1,
        1,
        1,
        1,
        1,
        1,
        1,
        1,
        1,
        1,
        1,
        1,
        1,
        1,
        1,
        1,
        1,
        1,
        1,
        1,
        1,
        1,
        1,
        1,
        1,
        1,
        1,
        1,
        1,
        1,
        1,
        1,
        1,
        1,
        1,
        1,
        1,
        1,
        1,
        1,
        1,
        1,
        1,
        1,
        1,
        1,
        1,
        1,
        1,
        1,
        1,
        1,
        1,
        1,
        1,
        1,
        1,
        1,
        1,
        1,
        1,
        1,
        1,
        1,
        1,
        1,
        1,
        1,
        1,
        0,
        0,
        1,
        1,
        1,
        1,
        1,
        1,
        1,
        1,
        1,
        1,
        1,
        1,
        1,
        1,
        1,
        1,
        1,
        1,
        1,
        1,
        1,
        1,
        1,
        1,
        1,
        1,
        1,
        1,
        1,
        1,
        1,
        1,
        1,
        1,
        1,
        1,
        1,
        1,
        1,
        1,
        1,
        1,
        1,
        1,
        1,
        1,
        1,
        1,
        1,
        1,
        1,
        1,
        1,
        1,
        1,
        1,
        1,
        1,
        1,
        1,
        1,
        1,
        1,
        1,
        1,
        1,
        1,
        1,
        1,
        1,
        0,
        0,
        0,
        0,
        0,
        0,
        0,
        0,
        0,
        0,
        0,
        0,
        0,
        0,
        0,
        0,
        0,
        0,
        0,
        0,
        0,
        0,
        0,
        0,
        0,
        0,
        0,
        0,
        0,
        0,
        0,
        0,
        0,
        0,
        0,
        0,
        0,
        0,
        0,
        0,
        0,
        0,
        0,
        0,
        0,
        0,
        0,
        0,
        0,
        0,
        0,
        0,
        0,
        0,
        0,
        0,
        0,
        0,
        0,
        0,
        0,
        0,
        0,
        0,
        0,
        0,
        0,
        0,
        0,
        0,
        0,
        0,
        0,
        0,
        0,
        0,
        0,
        0,
        0,
        0,
        0,
        0,
        0,
        0,
        0,
        0,
        0,
        0,
        0,
        0,
        0,
        0,
        0,
        0,
        0,
        0,
        0,
        0,
        0,
        0,
        0,
        0,
        0,
        0,
        0,
        0,
        0,
        0,
        0,
        0,
        0,
        0,
        0,
        0,
        0,
        0,
        0,
        0,
        0,
        0,
        0,
        0,
        0,
        0,
        0,
        0,
        0,
        0,
        0,
        0,
        0,
        0,
        0,
        0,
        0,
        0,
        0,
        0,
        0,
        0,
        0,
        0,
        0,
        0,
        0,
        0,
        0,
        0,
        0,
        0,
        0,
        0,
        0,
        0,
        0,
        0,
        0,
        0,
        0,
        0,
        0,
        0,
        0,
        0,
        0,
        0,
        0,
        0,
        0,
        0,
        0,
        2,
        2,
        2,
        2,
        2,
        2,
        2,
        2,
        2,
        2,
        2,
        2,
        2,
        2,
        2,
        2,
        2,
        2,
        2,
        2,
        0,
        0,
        0,
        0,
        0,
        0,
        0,
        0,
        0,
        0,
        0,
        0,
        0,
        0,
        0,
        0,
        0,
        0,
        0,
        0,
        0,
        0,
        0,
        0,
        0,
        0,
        0,
        0,
        0,
        0,
        0,
        0,
        0,
        0,
        0,
        0,
        0,
        0,
        0,
        0,
        0,
        0,
        0,
        0,
        0,
        0,
        0,
        0,
        0,
        0,
        0,
        0,
        2,
        2,
        2,
        2,
        2,
        2,
        2,
        2,
        2,
        2,
        2,
        2,
        2,
        2,
        2,
        2,
        2,
        2,
        2,
        2,
        0,
        0,
        0,
        0,
        0,
        0,
        0,
        0,
        0,
        0,
        0,
        0,
        0,
        0,
        0,
        0,
        0,
        0,
        0,
        0,
        0,
        0,
        0,
        0,
        0,
        0,
        0,
        0,
        0,
        0,
        0,
        0,
        0,
        0,
        0,
        0,
        0,
        0,
        0,
        0,
        0,
        0,
        0,
        0,
        0,
        0,
        0,
        0,
        0,
        0,
        0,
        0,
        2,
        2,
        2,
        2,
        2,
        2,
        2,
        2,
        2,
        2,
        2,
        2,
        2,
        2,
        2,
        2,
        2,
        2,
        2,
        2,
        0,
        0,
        0,
        0,
        0,
        0,
        0,
        0,
        0,
        0,
        0,
        0,
        0,
        0,
        0,
        0,
        0,
        0,
        0,
        0,
        0,
        0,
        0,
        0,
        0,
        0,
        0,
        0,
        0,
        0,
        0,
        0,
        0,
        0,
        0,
        0,
        0,
        0,
        0,
        0,
        0,
        0,
        0,
        0,
        0,
        0,
        0,
        0,
        0,
        0,
        0,
        0,
        2,
        2,
        2,
        2,
        2,
        2,
        2,
        2,
        2,
        2,
        2,
        2,
        2,
        2,
        2,
        2,
        2,
        2,
        2,
        2,
        0,
        0,
        0,
        0,
        0,
        0,
        0,
        0,
        0,
        0,
        0,
        0,
        0,
        0,
        0,
        0,
        0,
        0,
        0,
        0,
        0,
        0,
        0,
        0,
        0,
        0,
        0,
        0,
        0,
        0,
        0,
        0,
        0,
        0,
        0,
        0,
        0,
        0,
        0,
        0,
        0,
        0,
        0,
        0,
        0,
        0,
        0,
        0,
        0,
        0,
        0,
        0,
        2,
        2,
        2,
        2,
        2,
        2,
        2,
        2,
        2,
        2,
        2,
        2,
        2,
        2,
        2,
        2,
        2,
        2,
        2,
        2,
        0,
        0,
        0,
        0,
        0,
        0,
        0,
        0,
        0,
        0,
        0,
        0,
        0,
        0,
        0,
        0,
        0,
        0,
        0,
        0,
        0,
        0,
        0,
        0,
        0,
        0,
        0,
        0,
        0,
        0,
        0,
        0,
        0,
        0,
        0,
        0,
        0,
        0,
        0,
        0,
        0,
        0,
        0,
        0,
        0,
        0,
        0,
        0,
        0,
        0,
        0,
        0,
        2,
        2,
        2,
        2,
        2,
        2,
        2,
        2,
        2,
        2,
        2,
        2,
        2,
        2,
        2,
        2,
        2,
        2,
        2,
        2,
        0,
        0,
        0,
        0,
        0,
        0,
        0,
        0,
        0,
        0,
        0,
        0,
        0,
        0,
        0,
        0,
        0,
        0,
        0,
        0,
        0,
        0,
        0,
        0,
        0,
        0,
        0,
        0,
        0,
        0,
        0,
        0,
        0,
        0,
        0,
        0,
        0,
        0,
        0,
        0,
        0,
        0,
        0,
        0,
        0,
        0,
        0,
        0,
        0,
        0,
        0,
        0,
        0,
        0,
        0,
        0,
        0,
        0,
        0,
        0,
        0,
        0,
        0,
        0,
        0,
        0,
        0,
        0,
        0,
        0,
        0,
        0,
        0,
        0,
        0,
        0,
        0,
        0,
        0,
        0,
        0,
        0,
        0,
        0,
        0,
        0,
        0,
        0,
        0,
        0,
        0,
        0,
        0,
        0,
        0,
        0,
        0,
        0
      ]
    },
    {
      "id": 2,
      "type": "objectgroup",
      "name": "Props",
      "objects": [
        {
          "id": 1,
          "name": "table-1",
          "type": "table",
          "x": 288,
          "y": 192,
          "width": 32,
          "height": 32,
          "point": true
        },
        {
          "id": 2,
          "name": "table-2",
          "type": "table",
          "x": 288,
          "y": 448,
          "width": 32,
          "height": 32,
          "point": true
        },
        {
          "id": 3,
          "name": "table-3",
          "type": "table",
          "x": 640,
          "y": 192,
          "width": 32,
          "height": 32,
          "point": true
        },
        {
          "id": 4,
          "name": "table-4",
          "type": "table",
          "x": 640,
          "y": 448,
          "width": 32,
          "height": 32,
          "point": true
        },
        {
          "id": 5,
          "name": "table-5",
          "type": "table",
          "x": 992,
          "y": 192,
          "width": 32,
          "height": 32,
          "point": true
        },
        {
          "id": 6,
          "name": "table-6",
          "type": "table",
          "x": 992,
          "y": 448,
          "width": 32,
          "height": 32,
          "point": true
        },
        {
          "id": 7,
          "name": "table-7",
          "type": "table",
          "x": 1312,
          "y": 192,
          "width": 32,
          "height": 32,
          "point": true
        },
        {
          "id": 8,
          "name": "table-8",
          "type": "table",
          "x": 1312,
          "y": 448,
          "width": 32,
          "height": 32,
          "point": true
        },
        {
          "id": 9,
          "name": "plant-1",
          "type": "plant",
          "x": 96,
          "y": 128,
          "width": 32,
          "height": 32,
          "point": true
        },
        {
          "id": 10,
          "name": "plant-2",
          "type": "plant",
          "x": 1440,
          "y": 128,
          "width": 32,
          "height": 32,
          "point": true
        },
        {
          "id": 11,
          "name": "bar",
          "type": "bar",
          "x": 1952,
          "y": 160,
          "width": 32,
          "height": 32,
          "point": true
        },
        {
          "id": 12,
          "name": "stool-0",
          "type": "stool",
          "x": 1792,
          "y": 256,
          "width": 32,
          "height": 32,
          "point": true
        },
        {
          "id": 13,
          "name": "stool-1",
          "type": "stool",
          "x": 1872,
          "y": 256,
          "width": 32,
          "height": 32,
          "point": true
        },
        {
          "id": 14,
          "name": "stool-2",
          "type": "stool",
          "x": 1952,
          "y": 256,
          "width": 32,
          "height": 32,
          "point": true
        },
        {
          "id": 15,
          "name": "stool-3",
          "type": "stool",
          "x": 2032,
          "y": 256,
          "width": 32,
          "height": 32,
          "point": true
        },
        {
          "id": 16,
          "name": "stool-4",
          "type": "stool",
          "x": 2112,
          "y": 256,
          "width": 32,
          "height": 32,
          "point": true
        },
        {
          "id": 17,
          "name": "host",
          "type": "host",
          "x": 2080,
          "y": 480,
          "width": 32,
          "height": 32,
          "point": true
        },
        {
          "id": 18,
          "name": "coat",
          "type": "coat",
          "x": 2208,
          "y": 160,
          "width": 32,
          "height": 32,
          "point": true
        },
        {
          "id": 19,
          "name": "stove-0",
          "type": "stove",
          "x": 224,
          "y": 1120,
          "width": 32,
          "height": 32,
          "point": true
        },
        {
          "id": 20,
          "name": "soup-0",
          "type": "soup",
          "x": 192,
          "y": 1062.4,
          "width": 32,
          "height": 32,
          "point": true
        },
        {
          "id": 21,
          "name": "soup-1",
          "type": "soup",
          "x": 256,
          "y": 1062.4,
          "width": 32,
          "height": 32,
          "point": true
        },
        {
          "id": 22,
          "name": "stove-1",
          "type": "stove",
          "x": 608,
          "y": 1120,
          "width": 32,
          "height": 32,
          "point": true
        },
        {
          "id": 23,
          "name": "soup-2",
          "type": "soup",
          "x": 576,
          "y": 1062.4,
          "width": 32,
          "height": 32,
          "point": true
        },
        {
          "id": 24,
          "name": "soup-3",
          "type": "soup",
          "x": 640,
          "y": 1062.4,
          "width": 32,
          "height": 32,
          "point": true
        },
        {
          "id": 25,
          "name": "stove-2",
          "type": "stove",
          "x": 992,
          "y": 1120,
          "width": 32,
          "height": 32,
          "point": true
        },
        {
          "id": 26,
          "name": "soup-4",
          "type": "soup",
          "x": 960,
          "y": 1062.4,
          "width": 32,
          "height": 32,
          "point": true
        },
        {
          "id": 27,
          "name": "soup-5",
          "type": "soup",
          "x": 1024,
          "y": 1062.4,
          "width": 32,
          "height": 32,
          "point": true
        },
        {
          "id": 28,
          "name": "prep-1",
          "type": "prep",
          "x": 384,
          "y": 800,
          "width": 32,
          "height": 32,
          "point": true
        },
        {
          "id": 29,
          "name": "prep-2",
          "type": "prep",
          "x": 736,
          "y": 800,
          "width": 32,
          "height": 32,
          "point": true
        },
        {
          "id": 30,
          "name": "sink",
          "type": "sink",
          "x": 96,
          "y": 864,
          "width": 32,
          "height": 32,
          "point": true
        },
        {
          "id": 31,
          "name": "dish-pit",
          "type": "sink",
          "x": 1152,
          "y": 1120,
          "width": 32,
          "height": 32,
          "point": true
        },
        {
          "id": 32,
          "name": "pass-0",
          "type": "pass",
          "x": 448,
          "y": 656,
          "width": 32,
          "height": 32,
          "point": true
        },
        {
          "id": 33,
          "name": "pass-1",
          "type": "pass",
          "x": 736,
          "y": 656,
          "width": 32,
          "height": 32,
          "point": true
        },
        {
          "id": 34,
          "name": "pass-2",
          "type": "pass",
          "x": 992,
          "y": 656,
          "width": 32,
          "height": 32,
          "point": true
        },
        {
          "id": 35,
          "name": "pass-counter-0",
          "type": "counter",
          "x": 416,
          "y": 608,
          "width": 32,
          "height": 32,
          "point": true
        },
        {
          "id": 36,
          "name": "pass-counter-1",
          "type": "counter",
          "x": 736,
          "y": 608,
          "width": 32,
          "height": 32,
          "point": true
        },
        {
          "id": 37,
          "name": "pass-counter-2",
          "type": "counter",
          "x": 992,
          "y": 608,
          "width": 32,
          "height": 32,
          "point": true
        },
        {
          "id": 38,
          "name": "shelf-1",
          "type": "shelf",
          "x": 1440,
          "y": 768,
          "width": 32,
          "height": 32,
          "point": true
        },
        {
          "id": 39,
          "name": "shelf-2",
          "type": "shelf",
          "x": 1696,
          "y": 768,
          "width": 32,
          "height": 32,
          "point": true
        },
        {
          "id": 40,
          "name": "shelf-3",
          "type": "shelf",
          "x": 2080,
          "y": 768,
          "width": 32,
          "height": 32,
          "point": true
        },
        {
          "id": 41,
          "name": "shelf-4",
          "type": "shelf",
          "x": 2080,
          "y": 1088,
          "width": 32,
          "height": 32,
          "point": true
        },
        {
          "id": 42,
          "name": "shelf-5",
          "type": "shelf",
          "x": 1472,
          "y": 1120,
          "width": 32,
          "height": 32,
          "point": true
        },
        {
          "id": 43,
          "name": "pan-0",
          "type": "pan",
          "x": 192,
          "y": 1200,
          "width": 32,
          "height": 32,
          "point": true
        },
        {
          "id": 44,
          "name": "pan-1",
          "type": "pan",
          "x": 320,
          "y": 1200,
          "width": 32,
          "height": 32,
          "point": true
        },
        {
          "id": 45,
          "name": "pan-2",
          "type": "pan",
          "x": 448,
          "y": 1200,
          "width": 32,
          "height": 32,
          "point": true
        },
        {
          "id": 46,
          "name": "pan-3",
          "type": "pan",
          "x": 576,
          "y": 1200,
          "width": 32,
          "height": 32,
          "point": true
        },
        {
          "id": 47,
          "name": "pan-4",
          "type": "pan",
          "x": 704,
          "y": 1200,
          "width": 32,
          "height": 32,
          "point": true
        },
        {
          "id": 48,
          "name": "pan-5",
          "type": "pan",
          "x": 832,
          "y": 1200,
          "width": 32,
          "height": 32,
          "point": true
        },
        {
          "id": 49,
          "name": "pan-6",
          "type": "pan",
          "x": 960,
          "y": 1200,
          "width": 32,
          "height": 32,
          "point": true
        },
        {
          "id": 50,
          "name": "pan-7",
          "type": "pan",
          "x": 1088,
          "y": 1200,
          "width": 32,
          "height": 32,
          "point": true
        },
        {
          "id": 51,
          "name": "flour-1",
          "type": "flour",
          "x": 1408,
          "y": 864,
          "width": 32,
          "height": 32,
          "point": true
        },
        {
          "id": 52,
          "name": "flour-2",
          "type": "flour",
          "x": 1632,
          "y": 864,
          "width": 32,
          "height": 32,
          "point": true
        },
        {
          "id": 53,
          "name": "flour-3",
          "type": "flour",
          "x": 1952,
          "y": 864,
          "width": 32,
          "height": 32,
          "point": true
        },
        {
          "id": 54,
          "name": "flour-4",
          "type": "flour",
          "x": 2176,
          "y": 1184,
          "width": 32,
          "height": 32,
          "point": true
        },
        {
          "id": 55,
          "name": "barrel-1",
          "type": "barrel",
          "x": 1632,
          "y": 1120,
          "width": 32,
          "height": 32,
          "point": true
        },
        {
          "id": 56,
          "name": "barrel-2",
          "type": "barrel",
          "x": 1888,
          "y": 1120,
          "width": 32,
          "height": 32,
          "point": true
        },
        {
          "id": 57,
          "name": "nest",
          "type": "nest",
          "x": 928,
          "y": 1408,
          "width": 32,
          "height": 32,
          "point": true
        },
        {
          "id": 58,
          "name": "cauldron",
          "type": "cauldron",
          "x": 1312,
          "y": 1408,
          "width": 32,
          "height": 32,
          "point": true
        },
        {
          "id": 59,
          "name": "stash",
          "type": "stash",
          "x": 1120,
          "y": 1408,
          "width": 32,
          "height": 32,
          "point": true
        },
        {
          "id": 60,
          "name": "wall-59",
          "type": "wall",
          "x": 1504,
          "y": 32,
          "width": 32,
          "height": 32,
          "point": true
        },
        {
          "id": 61,
          "name": "wall-60",
          "type": "wall",
          "x": 1504,
          "y": 480,
          "width": 32,
          "height": 32,
          "point": true
        },
        {
          "id": 62,
          "name": "wall-61",
          "type": "wall",
          "x": 32,
          "y": 608,
          "width": 32,
          "height": 32,
          "point": true
        },
        {
          "id": 63,
          "name": "wall-62",
          "type": "wall",
          "x": 1120,
          "y": 608,
          "width": 32,
          "height": 32,
          "point": true
        },
        {
          "id": 64,
          "name": "wall-63",
          "type": "wall",
          "x": 1664,
          "y": 608,
          "width": 32,
          "height": 32,
          "point": true
        },
        {
          "id": 65,
          "name": "wall-64",
          "type": "wall",
          "x": 1280,
          "y": 672,
          "width": 32,
          "height": 32,
          "point": true
        },
        {
          "id": 66,
          "name": "wall-65",
          "type": "wall",
          "x": 1280,
          "y": 1024,
          "width": 32,
          "height": 32,
          "point": true
        }
      ]
    },
    {
      "id": 3,
      "type": "objectgroup",
      "name": "Collision",
      "objects": [
        {
          "id": 67,
          "name": "collision-0",
          "type": "mouse-only",
          "x": 236.8,
          "y": 153.6,
          "width": 102.4,
          "height": 76.8
        },
        {
          "id": 68,
          "name": "collision-1",
          "type": "mouse-only",
          "x": 236.8,
          "y": 409.6,
          "width": 102.4,
          "height": 76.8
        },
        {
          "id": 69,
          "name": "collision-2",
          "type": "mouse-only",
          "x": 588.8,
          "y": 153.6,
          "width": 102.4,
          "height": 76.8
        },
        {
          "id": 70,
          "name": "collision-3",
          "type": "mouse-only",
          "x": 588.8,
          "y": 409.6,
          "width": 102.4,
          "height": 76.8
        },
        {
          "id": 71,
          "name": "collision-4",
          "type": "mouse-only",
          "x": 940.8,
          "y": 153.6,
          "width": 102.4,
          "height": 76.8
        },
        {
          "id": 72,
          "name": "collision-5",
          "type": "mouse-only",
          "x": 940.8,
          "y": 409.6,
          "width": 102.4,
          "height": 76.8
        },
        {
          "id": 73,
          "name": "collision-6",
          "type": "mouse-only",
          "x": 1260.8,
          "y": 153.6,
          "width": 102.4,
          "height": 76.8
        },
        {
          "id": 74,
          "name": "collision-7",
          "type": "mouse-only",
          "x": 1260.8,
          "y": 409.6,
          "width": 102.4,
          "height": 76.8
        },
        {
          "id": 75,
          "name": "collision-8",
          "type": "mouse-only",
          "x": 75.2,
          "y": 107.2,
          "width": 41.6,
          "height": 41.6
        },
        {
          "id": 76,
          "name": "collision-9",
          "type": "mouse-only",
          "x": 1419.2,
          "y": 107.2,
          "width": 41.6,
          "height": 41.6
        },
        {
          "id": 77,
          "name": "collision-10",
          "type": "solid",
          "x": 1744,
          "y": 128,
          "width": 416,
          "height": 64
        },
        {
          "id": 78,
          "name": "collision-11",
          "type": "mouse-only",
          "x": 1779.2,
          "y": 243.2,
          "width": 25.6,
          "height": 25.6
        },
        {
          "id": 79,
          "name": "collision-12",
          "type": "mouse-only",
          "x": 1859.2,
          "y": 243.2,
          "width": 25.6,
          "height": 25.6
        },
        {
          "id": 80,
          "name": "collision-13",
          "type": "mouse-only",
          "x": 1939.2,
          "y": 243.2,
          "width": 25.6,
          "height": 25.6
        },
        {
          "id": 81,
          "name": "collision-14",
          "type": "mouse-only",
          "x": 2019.2,
          "y": 243.2,
          "width": 25.6,
          "height": 25.6
        },
        {
          "id": 82,
          "name": "collision-15",
          "type": "mouse-only",
          "x": 2099.2,
          "y": 243.2,
          "width": 25.6,
          "height": 25.6
        },
        {
          "id": 83,
          "name": "collision-16",
          "type": "solid",
          "x": 2032,
          "y": 448,
          "width": 96,
          "height": 64
        },
        {
          "id": 84,
          "name": "collision-17",
          "type": "mouse-only",
          "x": 2188.8,
          "y": 140.8,
          "width": 38.4,
          "height": 38.4
        },
        {
          "id": 85,
          "name": "collision-18",
          "type": "solid",
          "x": 128,
          "y": 1088,
          "width": 192,
          "height": 64
        },
        {
          "id": 86,
          "name": "collision-19",
          "type": "solid",
          "x": 512,
          "y": 1088,
          "width": 192,
          "height": 64
        },
        {
          "id": 87,
          "name": "collision-20",
          "type": "solid",
          "x": 896,
          "y": 1088,
          "width": 192,
          "height": 64
        },
        {
          "id": 88,
          "name": "collision-21",
          "type": "solid",
          "x": 304,
          "y": 768,
          "width": 160,
          "height": 64
        },
        {
          "id": 89,
          "name": "collision-22",
          "type": "solid",
          "x": 656,
          "y": 768,
          "width": 160,
          "height": 64
        },
        {
          "id": 90,
          "name": "collision-23",
          "type": "solid",
          "x": 64,
          "y": 784,
          "width": 64,
          "height": 160
        },
        {
          "id": 91,
          "name": "collision-24",
          "type": "solid",
          "x": 1104,
          "y": 1088,
          "width": 96,
          "height": 64
        },
        {
          "id": 92,
          "name": "collision-25",
          "type": "mouse-only",
          "x": 304,
          "y": 592,
          "width": 224,
          "height": 32
        },
        {
          "id": 93,
          "name": "collision-26",
          "type": "mouse-only",
          "x": 624,
          "y": 592,
          "width": 224,
          "height": 32
        },
        {
          "id": 94,
          "name": "collision-27",
          "type": "mouse-only",
          "x": 880,
          "y": 592,
          "width": 224,
          "height": 32
        },
        {
          "id": 95,
          "name": "collision-28",
          "type": "mouse-only",
          "x": 1360,
          "y": 745.6,
          "width": 160,
          "height": 44.8
        },
        {
          "id": 96,
          "name": "collision-29",
          "type": "mouse-only",
          "x": 1616,
          "y": 745.6,
          "width": 160,
          "height": 44.8
        },
        {
          "id": 97,
          "name": "collision-30",
          "type": "mouse-only",
          "x": 2000,
          "y": 745.6,
          "width": 160,
          "height": 44.8
        },
        {
          "id": 98,
          "name": "collision-31",
          "type": "mouse-only",
          "x": 2000,
          "y": 1065.6,
          "width": 160,
          "height": 44.8
        },
        {
          "id": 99,
          "name": "collision-32",
          "type": "mouse-only",
          "x": 1392,
          "y": 1097.6,
          "width": 160,
          "height": 44.8
        },
        {
          "id": 100,
          "name": "collision-33",
          "type": "mouse-only",
          "x": 1608,
          "y": 1096,
          "width": 48,
          "height": 48
        },
        {
          "id": 101,
          "name": "collision-34",
          "type": "mouse-only",
          "x": 1864,
          "y": 1096,
          "width": 48,
          "height": 48
        },
        {
          "id": 102,
          "name": "collision-35",
          "type": "solid",
          "x": 1504,
          "y": 32,
          "width": 32,
          "height": 160
        },
        {
          "id": 103,
          "name": "collision-36",
          "type": "solid",
          "x": 1504,
          "y": 480,
          "width": 32,
          "height": 128
        },
        {
          "id": 104,
          "name": "collision-37",
          "type": "solid",
          "x": 32,
          "y": 608,
          "width": 256,
          "height": 32
        },
        {
          "id": 105,
          "name": "collision-38",
          "type": "solid",
          "x": 1120,
          "y": 608,
          "width": 256,
          "height": 32
        },
        {
          "id": 106,
          "name": "collision-39",
          "type": "solid",
          "x": 1664,
          "y": 608,
          "width": 352,
          "height": 32
        },
        {
          "id": 107,
          "name": "collision-40",
          "type": "solid",
          "x": 1280,
          "y": 672,
          "width": 32,
          "height": 128
        },
        {
          "id": 108,
          "name": "collision-41",
          "type": "solid",
          "x": 1280,
          "y": 1024,
          "width": 32,
          "height": 224
        }
      ]
    },
    {
      "id": 4,
      "type": "objectgroup",
      "name": "Holes",
      "objects": [
        {
          "id": 500,
          "name": "H1",
          "type": "hole",
          "x": 96,
          "y": 288,
          "point": true,
          "properties": [
            {
              "name": "junction",
              "type": "string",
              "value": "T4"
            }
          ]
        },
        {
          "id": 501,
          "name": "H2",
          "type": "hole",
          "x": 768,
          "y": 96,
          "point": true,
          "properties": [
            {
              "name": "junction",
              "type": "string",
              "value": "T4"
            }
          ]
        },
        {
          "id": 502,
          "name": "H3",
          "type": "hole",
          "x": 1408,
          "y": 544,
          "point": true,
          "properties": [
            {
              "name": "junction",
              "type": "string",
              "value": "T4"
            }
          ]
        },
        {
          "id": 503,
          "name": "H4",
          "type": "hole",
          "x": 2208,
          "y": 320,
          "point": true,
          "properties": [
            {
              "name": "junction",
              "type": "string",
              "value": "T5"
            }
          ]
        },
        {
          "id": 504,
          "name": "H5",
          "type": "hole",
          "x": 160,
          "y": 896,
          "point": true,
          "properties": [
            {
              "name": "junction",
              "type": "string",
              "value": "T1"
            }
          ]
        },
        {
          "id": 505,
          "name": "H6",
          "type": "hole",
          "x": 864,
          "y": 1200,
          "point": true,
          "properties": [
            {
              "name": "junction",
              "type": "string",
              "value": "T1"
            }
          ]
        },
        {
          "id": 506,
          "name": "H7",
          "type": "hole",
          "x": 160,
          "y": 1184,
          "point": true,
          "properties": [
            {
              "name": "junction",
              "type": "string",
              "value": "T3"
            }
          ]
        },
        {
          "id": 507,
          "name": "H8",
          "type": "hole",
          "x": 1376,
          "y": 832,
          "point": true,
          "properties": [
            {
              "name": "junction",
              "type": "string",
              "value": "T2"
            }
          ]
        },
        {
          "id": 508,
          "name": "H9",
          "type": "hole",
          "x": 1504,
          "y": 1184,
          "point": true,
          "properties": [
            {
              "name": "junction",
              "type": "string",
              "value": "T2"
            }
          ]
        },
        {
          "id": 509,
          "name": "H10",
          "type": "hole",
          "x": 2208,
          "y": 928,
          "point": true,
          "properties": [
            {
              "name": "junction",
              "type": "string",
              "value": "T2"
            }
          ]
        },
        {
          "id": 510,
          "name": "H11",
          "type": "hole",
          "x": 1632,
          "y": 384,
          "point": true,
          "properties": [
            {
              "name": "junction",
              "type": "string",
              "value": "T4"
            }
          ]
        }
      ]
    }
  ]
}
